src/static/logos/ibm.svg

<?xml version="1.0" encoding="UTF-8"?>
<svg width="512px" height="205px" viewBox="0 0 512 205" version="1.1" xmlns="http://www.w3.org/2000/svg" xmlns:xlink="http://www.w3.org/1999/xlink" preserveAspectRatio="xMidYMid">
    <g>
        <path d="M0,0 L0,14.011904 L99.6600013,14.011904 L99.6600013,0 L0,0 Z M113.780004,0 L113.780004,14.011904 L255.799997,14.011904 C255.799992,14.011904 241.29344,0 222.08,0 L113.780004,0 Z M283.660001,0 L283.660001,14.011904 L369.580001,14.011904 L364.48,0 L283.660001,0 Z M431.180001,0 L426.08,14.011904 L511.219999,14.011904 L511.219999,0 L431.180001,0 Z M0,27.2497715 L0,41.2616714 L99.6600013,41.2616714 L99.6600013,27.2497715 L0,27.2497715 Z M113.780004,27.2696192 L113.780004,41.2616714 L272.280003,41.2616714 C272.280003,41.2616776 270.4288,30.4775096 267.2,27.2696192 L113.780004,27.2696192 Z M283.660001,27.2696192 L283.660001,41.2616714 L379.000003,41.2616714 L374.279997,27.2696192 L283.660001,27.2696192 Z M420.979999,27.2696192 L416.259999,41.2616714 L511.219999,41.2616714 L511.219999,27.2696192 L420.979999,27.2696192 Z M28.639998,54.499543 L28.639998,68.531287 L71.7999974,68.531287 L71.7999974,54.499543 L28.639998,54.499543 Z M142.420004,54.499543 L142.420004,68.531287 L185.579996,68.531287 L185.579996,54.499543 L142.420004,54.499543 Z M227.560003,54.499543 L227.560003,68.531287 L270.72,68.531287 C270.720005,68.531287 273.459999,61.1211008 273.459999,54.499543 L227.560003,54.499543 Z M312.300001,54.499543 L312.300001,68.531287 L388.820004,68.531287 L383.720003,54.499543 L312.300001,54.499543 Z M411.580001,54.499543 L406.460001,68.531287 L483.36,68.531287 L483.36,54.499543 L411.580001,54.499543 Z M28.639998,81.7691648 L28.639998,95.7810586 L71.7999974,95.7810586 L71.7999974,81.7691648 L28.639998,81.7691648 Z M142.420004,81.7691648 L142.420004,95.7810586 L252.660004,95.7810586 C252.660009,95.7810534 261.881759,88.5914112 264.819999,81.7691648 L142.420004,81.7691648 Z M312.300001,81.7691648 L312.300001,95.7810586 L355.459999,95.7810586 L355.459999,87.9812352 L358.199997,95.7810586 L437.260001,95.7810586 L440.200003,87.9812352 L440.200003,95.7810586 L483.36,95.7810586 L483.36,81.7691648 L402.339999,81.7691648 L398.039997,93.6375962 L393.720003,81.7691648 L312.300001,81.7691648 Z M28.639998,109.018936 L28.639998,123.03083 L71.7999974,123.03083 L71.7999974,109.018936 L28.639998,109.018936 Z M142.420004,109.018936 L142.420004,123.03083 L264.819999,123.03083 C261.881124,116.230815 252.660004,109.018936 252.660004,109.018936 L142.420004,109.018936 Z M312.300001,109.018936 L312.300001,123.03083 L355.459999,123.03083 L355.459999,109.018936 L312.300001,109.018936 Z M363.299999,109.018936 L368.520003,123.03083 L427.800003,123.03083 L432.760003,109.018936 L363.299999,109.018936 Z M440.200003,109.018936 L440.200003,123.03083 L483.36,123.03083 L483.36,109.018936 L440.200003,109.018936 Z M28.639998,136.268708 L28.639998,150.280602 L71.7999974,150.280602 L71.7999974,136.268708 L28.639998,136.268708 Z M142.420004,136.268708 L142.420004,150.280602 L185.579996,150.280602 L185.579996,136.268708 L142.420004,136.268708 Z M227.560003,136.268708 L227.560003,150.280602 L273.459999,150.280602 C273.460009,143.667953 270.72,136.268708 270.72,136.268708 L227.560003,136.268708 Z M312.300001,136.268708 L312.300001,150.280602 L355.459999,150.280602 L355.459999,136.268708 L312.300001,136.268708 Z M373.099996,136.268708 L378.16,150.280602 L417.899996,150.280602 L422.999997,136.268708 L373.099996,136.268708 Z M440.200003,136.268708 L440.200003,150.280602 L483.36,150.280602 L483.36,136.268708 L440.200003,136.268708 Z M0.77999616,163.518479 L0.77999616,177.550223 L100.439997,177.550223 L100.439997,163.518479 L0.77999616,163.518479 Z M113.780004,163.518479 L113.780004,177.550223 L267.2,177.550223 C270.4288,174.337254 272.280003,163.518479 272.280003,163.518479 L113.780004,163.518479 Z M284.439997,163.518479 L284.439997,177.550223 L355.459999,177.550223 L355.459999,163.518479 L284.439997,163.518479 Z M382.919997,163.518479 L388.119997,177.550223 L408.339999,177.550223 L413.219999,163.518479 L382.919997,163.518479 Z M440.200003,163.518479 L440.200003,177.550223 L512,177.550223 L512,163.518479 L440.200003,163.518479 Z M0.77999616,190.788096 L0.77999616,204.8 L100.439997,204.8 L100.439997,190.788096 L0.77999616,190.788096 Z M113.780004,190.788096 L113.780004,204.780155 L222.08,204.780155 C241.293435,204.780145 255.799997,190.788096 255.799997,190.788096 L113.780004,190.788096 Z M284.439997,190.788096 L284.439997,204.8 L355.459999,204.8 L355.459999,190.788096 L284.439997,190.788096 Z M392.780001,190.788096 L397.780004,204.7603 L398.64,204.780155 L403.720003,190.788096 L392.780001,190.788096 Z M440.200003,190.788096 L440.200003,204.8 L512,204.8 L512,190.788096 L440.200003,190.788096 Z" fill="#1F70C1" fill-rule="nonzero"></path>
    </g>
</svg>

<svg width="512" height="205" xmlns="http://www.w3.org/2000/svg" preserveAspectRatio="xMidYMid"><path d="M0 0v14.012h99.66V0H0zm113.78 0v14.012H255.8S241.293 0 222.08 0h-108.3zm169.88 0v14.012h85.92L364.48 0h-80.82zm147.52 0l-5.1 14.012h85.14V0h-80.04zM0 27.25v14.012h99.66V27.25H0zm113.78.02v13.992h158.5s-1.851-10.784-5.08-13.992H113.78zm169.88 0v13.992H379l-4.72-13.992h-90.62zm137.32 0l-4.72 13.992h94.96V27.27h-90.24zM28.64 54.5v14.03H71.8V54.5H28.64zm113.78 0v14.03h43.16V54.5h-43.16zm85.14 0v14.03h43.16s2.74-7.41 2.74-14.031h-45.9zm84.74 0v14.03h76.52l-5.1-14.031H312.3zm99.28 0l-5.12 14.031h76.9V54.5h-71.78zM28.64 81.77v14.01H71.8V81.77H28.64zm113.78 0v14.01h110.24s9.222-7.19 12.16-14.012h-122.4zm169.88 0v14.01h43.16v-7.8l2.74 7.8h79.06l2.94-7.8v7.8h43.16V81.77h-81.02l-4.3 11.869-4.32-11.869H312.3zM28.64 109.018v14.012H71.8v-14.012H28.64zm113.78 0v14.012h122.4c-2.939-6.8-12.16-14.012-12.16-14.012H142.42zm169.88 0v14.012h43.16v-14.012H312.3zm51 0l5.22 14.012h59.28l4.96-14.012H363.3zm76.9 0v14.012h43.16v-14.012H440.2zm-411.56 27.25v14.012H71.8v-14.012H28.64zm113.78 0v14.012h43.16v-14.012h-43.16zm85.14 0v14.012h45.9c0-6.613-2.74-14.012-2.74-14.012h-43.16zm84.74 0v14.012h43.16v-14.012H312.3zm60.8 0l5.06 14.012h39.74l5.1-14.012h-49.9zm67.1 0v14.012h43.16v-14.012H440.2zM.78 163.519v14.031h99.66v-14.032H.78zm113 0v14.031H267.2c3.229-3.213 5.08-14.032 5.08-14.032h-158.5zm170.66 0v14.031h71.02v-14.032h-71.02zm98.48 0l5.2 14.031h20.22l4.88-14.032h-30.3zm57.28 0v14.031H512v-14.032h-71.8zM.78 190.788V204.8h99.66v-14.012H.78zm113 0v13.991h108.3c19.213 0 33.72-13.992 33.72-13.992H113.78zm170.66 0V204.8h71.02v-14.012h-71.02zm108.34 0l5 13.971.86.02 5.08-13.992h-10.94zm47.42 0V204.8H512v-14.012h-71.8z" fill="#1F70C1"/></svg>
